src/assets/outline/Monitor.svg

<?xml version="1.0" encoding="UTF-8"?>
<svg width="24" height="24" viewBox="0 0 24 24" xmlns="http://www.w3.org/2000/svg">
 <path d="m17.56 17.97h-11.12c-3.98 0-5.19-1.21-5.19-5.19v-6.34c0-3.98 1.21-5.19 5.19-5.19h11.11c3.98 0 5.19 1.21 5.19 5.19v6.33c0.01 3.99-1.2 5.2-5.18 5.2zm-11.12-15.22c-3.14 0-3.69 0.55-3.69 3.69v6.33c0 3.14 0.55 3.69 3.69 3.69h11.11c3.14 0 3.69-0.55 3.69-3.69v-6.33c0-3.14-0.55-3.69-3.69-3.69h-11.11z"/>
 <path d="m12 22.75c-0.41 0-0.75-0.34-0.75-0.75v-4.78c0-0.41 0.34-0.75 0.75-0.75s0.75 0.34 0.75 0.75v4.78c0 0.41-0.34 0.75-0.75 0.75z"/>
 <path d="m22 13.75h-20c-0.41 0-0.75-0.34-0.75-0.75s0.34-0.75 0.75-0.75h20c0.41 0 0.75 0.34 0.75 0.75s-0.34 0.75-0.75 0.75z"/>
 <path d="m16.5 22.75h-9c-0.41 0-0.75-0.34-0.75-0.75s0.34-0.75 0.75-0.75h9c0.41 0 0.75 0.34 0.75 0.75s-0.34 0.75-0.75 0.75z"/>
</svg>

<svg width="24" height="24" viewBox="0 0 24 24"  xmlns="http://www.w3.org/2000/svg">
<path d="M17.56 17.97H6.44C2.46 17.97 1.25 16.76 1.25 12.78V6.44C1.25 2.46 2.46 1.25 6.44 1.25H17.55C21.53 1.25 22.74 2.46 22.74 6.44V12.77C22.75 16.76 21.54 17.97 17.56 17.97ZM6.44 2.75C3.3 2.75 2.75 3.3 2.75 6.44V12.77C2.75 15.91 3.3 16.46 6.44 16.46H17.55C20.69 16.46 21.24 15.91 21.24 12.77V6.44C21.24 3.3 20.69 2.75 17.55 2.75H6.44Z" />
<path d="M12 22.7497C11.59 22.7497 11.25 22.4097 11.25 21.9997V17.2197C11.25 16.8097 11.59 16.4697 12 16.4697C12.41 16.4697 12.75 16.8097 12.75 17.2197V21.9997C12.75 22.4097 12.41 22.7497 12 22.7497Z" />
<path d="M22 13.75H2C1.59 13.75 1.25 13.41 1.25 13C1.25 12.59 1.59 12.25 2 12.25H22C22.41 12.25 22.75 12.59 22.75 13C22.75 13.41 22.41 13.75 22 13.75Z" />
<path d="M16.5 22.75H7.5C7.09 22.75 6.75 22.41 6.75 22C6.75 21.59 7.09 21.25 7.5 21.25H16.5C16.91 21.25 17.25 21.59 17.25 22C17.25 22.41 16.91 22.75 16.5 22.75Z" />
</svg>
